X:1
T:Title
%%score 1 { 2 | 3 }
L:1/8
Q:1/4=105
M:4/4
K:D
V:1 treble nm="Grand Piano, Unnamed-000"
V:2 treble nm="Choir Pad, Melmore, LM"
V:3 bass 
V:1
 [FA]2 [FA]2- [FA][FA][=F^G][^FA] | [^GB][FA] [DF]6 | [DF]2 [EG]2- [EG][DF][CE][DF] | %3
w: By~William~Martin,~1864 * * * * *|||
 [EG][CA] [DF]6 | D2 [GB]2- [GB][GB][GB][Bd] | [Ac][GB] [FA]6 | [Fd]2 [DF]2- [DF][GB][FA][EG] | %7
w: ||||
 [CE]C D6- | D2 z2 z4 |] %9
w: ||
V:2
 D2 D2- DDDD | DD[K:bass] A,6 | A,2 A,2- A,A,A,A, | A,A, A,6 | D2 D2- DDDD | DD D6 | %6
 A,2 A,2- A,DDA, | A,G, F,6- | F,2 z2 z4 |] %9
V:3
 D,2 D,2- D,D,D,D, | D,D, D,6 | D,2 A,,2- A,,A,,A,,A,, | A,,A,, D,6 | D,2 G,2- G,G,G,G, | %5
 G,G, D,6 | D,2 D,2- D,G,,A,,A,, | A,,A,, D,6- | D,2 z2 z4 |] %9

